src/main/resources/icons/PhpIcons/icons/run_web_app.svg

<svg xmlns="http://www.w3.org/2000/svg" width="16" height="16" viewBox="0 0 16 16">
  <g fill="none" fill-rule="evenodd">
    <path fill="#9AA7B0" d="M4.5,1 C2.568,1 1,2.568 1,4.5 C1,6.432 2.568,8 4.5,8 C6.432,8 8,6.432 8,4.5 C8,2.568 6.432,1 4.5,1 Z M4.15,7.2755 C2.7675,7.104 1.7,5.928 1.7,4.5 C1.7,4.283 1.728,4.0765 1.7735,3.8735 L3.45,5.55 L3.45,5.9 C3.45,6.285 3.765,6.6 4.15,6.6 L4.15,7.2755 Z M6.565,6.3865 C6.474,6.103 6.215,5.9 5.9,5.9 L5.55,5.9 L5.55,4.85 C5.55,4.6575 5.3925,4.5 5.2,4.5 L3.1,4.5 L3.1,3.8 L3.8,3.8 C3.9925,3.8 4.15,3.6425 4.15,3.45 L4.15,2.75 L4.85,2.75 C5.235,2.75 5.55,2.435 5.55,2.05 L5.55,1.9065 C6.5755,2.323 7.3,3.3275 7.3,4.5 C7.3,5.228 7.02,5.8895 6.565,6.3865 Z"/>
    <polygon fill="#B99BF8" fill-opacity=".7" points="1 16 16 16 16 9 1 9"/>
    <path fill="#9AA7B0" fill-opacity=".8" d="M7.32866717,1 L13,1 L13,8 L7.32866717,8 C8.34816653,7.17502225 9,5.91363305 9,4.5 C9,3.08636695 8.34816653,1.82497775 7.32866717,1 Z"/>
    <path fill="#231F20" fill-opacity=".7" d="M1.9,2.5 C2.564,2.5 3,2.38439941 3,1.75 C3,1.11560059 2.557,1 1.9,1 L1,1 L1,2.5 L1.9,2.5 Z M0,0 L1.971,0 C3.142,0 4,0.642 4,1.65 C4,3.28582764 2.971,3.5 1.872,3.5 L1,3.5 L1,5 L0,5 L0,0 Z" transform="translate(2 10)"/>
    <path fill="#231F20" fill-opacity=".7" d="M1.9,2.5 C2.564,2.5 3,2.38439941 3,1.75 C3,1.11560059 2.557,1 1.9,1 L1,1 L1,2.5 L1.9,2.5 Z M0,0 L1.971,0 C3.142,0 4,0.642 4,1.65 C4,3.28582764 2.971,3.5 1.872,3.5 L1,3.5 L1,5 L0,5 L0,0 Z" transform="translate(12 10)"/>
    <polygon fill="#231F20" fill-opacity=".7" points="0 0 1 0 1 2 3 2 3 0 4 0 4 5 3 5 3 3 1 3 1 5 0 5" transform="translate(7 10)"/>
  </g>
</svg>

<svg xmlns="http://www.w3.org/2000/svg" width="16" height="16" viewBox="0 0 16 16"><rect id="frame" width="16" height="16" fill="none"/><g fill="none" fill-rule="evenodd"><path fill="#9AA7B0" d="M4.5 1A3.501 3.501 0 0 0 1 4.5C1 6.432 2.568 8 4.5 8S8 6.432 8 4.5 6.432 1 4.5 1zm-.35 6.276a2.796 2.796 0 0 1-2.377-3.402L3.45 5.55v.35c0 .385.315.7.7.7v.676zm2.415-.89A.694.694 0 0 0 5.9 5.9h-.35V4.85a.351.351 0 0 0-.35-.35H3.1v-.7h.7c.193 0 .35-.157.35-.35v-.7h.7c.385 0 .7-.315.7-.7v-.143A2.802 2.802 0 0 1 7.3 4.5c0 .728-.28 1.39-.735 1.886z"/><path fill="#B99BF8" fill-opacity=".7" d="M1 16h15V9H1z"/><path fill="#9AA7B0" fill-opacity=".8" d="M7.329 1H13v7H7.329A4.491 4.491 0 0 0 9 4.5 4.491 4.491 0 0 0 7.329 1z"/><path fill="#231F20" fill-opacity=".7" d="M3.9 12.5c.664 0 1.1-.116 1.1-.75S4.557 11 3.9 11H3v1.5h.9zM2 10h1.971C5.142 10 6 10.642 6 11.65c0 1.636-1.029 1.85-2.128 1.85H3V15H2v-5z"/><path fill="#231F20" fill-opacity=".7" d="M13.9 12.5c.664 0 1.1-.116 1.1-.75s-.443-.75-1.1-.75H13v1.5h.9zM12 10h1.971c1.171 0 2.029.642 2.029 1.65 0 1.636-1.029 1.85-2.128 1.85H13V15h-1v-5z"/><path fill="#231F20" fill-opacity=".7" d="M7 10h1v2h2v-2h1v5h-1v-2H8v2H7z"/></g></svg>
